!!!COM: Gabriel Faure/
!!!CNT: Francais
!!!TXO: Francais
!!!OTL: "C'est l'extase"
!!!LYR: Verlaine
!!!OPR: Cinq Me/lodies
!!!OPS: Op. 58
!!!ONM: No. 5
!!!ENC: Emily Thomas
!!!YOR: CD Sheet Music French Art Songs, The Ultimate Collection
!!!YOR: CD Sheet Music, LLC 2003
!!!ODT: 1891/
!!NB: Vocal melody and text encoded.
**kern	**silbe
=0	=0
*clefG2	*
*k[b-e-a-d-g-]	*
*M3/4	*
*MM[Adagio non troppo]	*
2.r	.
=2	=2
4r	.
4r	.
{8.dd-	{C'est
16dd-	l'ex-
=3	=3
4.a-	-ta-
8a-	-se
8.b-	lan-
16b-	-gou-
=4	=4
2cc	-reu-
4a-}	-se,}
=5	=5
4r	.
4r	.
8r	.
{8dd-	{C'est
=6	=6
8a-	la
8a-	fa-
4b-	-ti-
8b-	-gue
16a-	a-
16b-	-mou-
=7	=7
2cc	-reu-
4a-}	-se,}
=8	=8
4r	.
{8dd-	{C'est
8ff-	tous
8ee-	les
8cc-	fris-
=9	=9
2a-	-sons
8.g-	des
16a-	|
=10	=10
2a-}	bois,}
8r	.
{8een	{Par-
=11	=11
8cc#	-mi
8an	l'e/-
4f#	-trein-
8.g#	-te
16en	des
=12	=12
4en	bri-
4c#}	-ses,}
{4cc#	{C'est
=13	=13
4ddn 	vers
8b-	les
8gn	ra-
8.an	-mu-
16f	-res
=14	=14
4f	gri-
4.dn}	-ses}
{8gn	{Le
=15	=15
4dn	choeur
8en	des
8f#	pe-
8.g#	-ti-
16g#	-tes
=16	=16
[2a-	voix
8a-]}	|}
8r	.
=17	=17
2.r	.
=18	=18
{8a-	{O^
8f-	le
8g-	fre^le
8a-	et
8.b--	frais
16cc-	mur-
=19	=19
2ccn	-mu-
[4a-	-re.
=20	=20
4a-]}	|}
4r	.
4r	.
=21	=21
8r	.
{8gn	{Ce-
8an	-la
8bn	ga-
8cc	-zouille
16ddn	et
16ddn	su-
=22	=22
4ee-	-su-
4e-}	-re}
8r	.
{8ee-	{Ce-
=23	=23
8dd-	-la
8cc	res-
4b-	-semble
8a-	au
8gn	bruit
=24	=24
2g-}	doux}
{4g-	{Que
=25	=25
4gn	l'herbe
8a-	a-
8d-	-gi-
8.e-	-te/-
16f	ex-
=26	=26
4g-	-pi-
8g-}	-re}
8r	.
{8g-	{Tu
8f-	di-
=27	=27
4.cc-	-rais,
8dd-	sous
8cc-	l'eau
8b-	qui
=28	=28
4b-	vi-
8g-}	-re,}
{8g-	{Le
8a-	rou-
8b-	-lis
=29	=29
2b-	sourd
8a-	des
8f-	cail-
=30	=30
[4e-	-loux.
8e-]}	|}
8r	.
4r	.
=31	=31
2.r	.
=32	=32
4r	.
8r	.
{8a-	{Cette
[4cc-	a^-
=33	=33
4.cc-]	|
8cc-	-me
12cc-	qui
12b-	se
12c-	la-
=34	=34
2b-	-men-
[4b-	-te
=35	=35
4b-]}	|}
4r	.
4r	.
=36	=36
{4a-	{Et
8a-	cet-
8a-	-te
[4cc-	plain-
=37	=37
4cc-_	|
12cc-]	|
12b-	-te
12cc-	dor-
[4b-	-man-
=38	=38
2b-]	|
4b-}	-te,}
=39	=39
4r	.
{4.b-	{C'est
8dd-	la
=40	=40
4.cc	no^-
8an	-tre,
8.f	n'est-
16c	-ce
=41	=41
2c}	pas?}
8r	.
{8cc	{La
=42	=42
8.ee-	mein-
16g-	-ne,
4g-	dis,
8.b-	et
16c	la
=43	=43
4cc	tien-
[4dn	-ne,
8dn]}	|}
8r	.
=44	=44
{8.cc	{Dont
16cc	s'e-
4.dd-	-xa-
8ee-	-le
=45	=45
8.ff-	l'humble
16a-	an-
4b-	-tien-
[4a-	-ne
=46	=46
8a-]}	|}
8r	.
{8cc	{Par
8b-	|
8ddn	ce
8cc	|
=47	=47
4.cc	tie\-
8gn	-de
[4g-	soir,
=48	=48
4g-]	|
[2f	|
=49	=49
4f_	|
8f]	|
8r	.
4e-	tout
=50	=50
[2.d-	bas.
=51	=51
4d-]}	|}
4r	.
4r	.
==	==
*-	*-
